frontend/public/svg/interface/Info.svg

<svg width="155" height="151" viewBox="0 0 155 151" fill="none" xmlns="http://www.w3.org/2000/svg">
<path d="M80.1111 59.0449C80.0492 58.9681 79.9714 58.9059 79.8829 58.8625C79.7943 58.8191 79.6974 58.7957 79.5989 58.7939C77.4091 58.8365 76.0672 59.8682 75.61 61.8591C75.0963 63.8958 74.7182 65.9643 74.478 68.0511C72.8549 84.5843 72.2914 101.205 72.7912 117.81C72.8708 120.175 73.1629 122.909 74.7225 125.263C75.1991 125.863 75.812 126.341 76.5103 126.656C76.8218 126.83 77.1437 127.01 77.4521 127.216C77.579 127.301 77.7323 127.337 77.8834 127.315C78.0345 127.295 78.1729 127.219 78.2723 127.104C78.5376 126.796 78.8187 126.517 79.0962 126.247C79.7157 125.747 80.1923 125.093 80.4778 124.349L80.5676 124.021C81.1978 121.72 81.8492 119.342 81.8728 116.948C82.0161 102.497 82.0496 87.8045 82.083 73.5957L82.1062 64.3962C82.1722 63.3946 82.0617 62.3892 81.7795 61.426C81.4892 60.7395 81.0739 60.1129 80.5549 59.5783C80.3934 59.3936 80.2392 59.2163 80.1111 59.0449Z" fill="black"/>
<path d="M85.2889 46.7161C87.2225 43.0197 86.8447 39.1824 84.196 35.6131C81.3839 31.8256 77.7121 30.93 73.2815 32.9501C73.1382 33.0158 73.0251 33.1332 72.9646 33.2788C72.7394 33.8201 72.5081 34.3524 72.2793 34.8785C71.0044 37.8033 69.8041 40.5658 70.1695 43.8326C70.5824 47.5259 72.9216 50.235 76.2746 50.9014C76.842 51.0148 77.419 51.0721 77.9975 51.0728C79.4955 51.0868 80.9684 50.6876 82.2546 49.919C83.5408 49.1505 84.5907 48.0424 85.2889 46.7161ZM77.7965 40.6751L77.6753 42.4577C77.3025 42.1321 77.0437 41.8617 77.037 41.708C77.031 41.5196 77.3278 41.1557 77.7971 40.6751H77.7965Z" fill="black"/>
<path d="M3.39067 55.0154C-3.41281 81.8037 2.54486 105.436 21.1105 125.267C21.5935 125.779 22.0865 126.291 22.5787 126.785C32.5519 136.775 44.9739 142.944 54.8164 147.237C59.0409 149.085 80.7172 151.329 86.5821 150.454C121.436 145.24 144.373 125.546 152.361 92.5988C153.887 86.1449 154.646 79.5332 154.624 72.9008C154.662 57.277 148.095 39.1132 134.553 25.5093C133.159 24.3545 131.77 23.1582 130.426 21.9987C127.513 19.4896 124.501 16.8915 121.351 14.676C97.2829 -2.29426 72.2759 -2.38905 47.0277 6.60994C24.1678 14.7491 9.48765 31.0392 3.39067 55.0154ZM47.1256 14.6285C69.2783 5.4057 91.506 3.77814 113.185 17.5913C117.149 20.1196 127.717 28.6762 129.381 29.9614L129.488 30.0403L129.576 30.1385C138.034 39.1237 147.719 55.5527 147.505 72.4413C147.434 79.6628 146.459 86.8469 144.6 93.8248C139.093 113.876 125.928 128.49 104.351 138.485C82.416 149.007 50.9592 138.37 42.5896 132.835C33.3388 126.499 25.2443 118.616 18.6597 109.532C8.3336 94.8861 6.01687 73.8332 11.5657 54.5875C14.1623 45.7012 18.7004 37.505 24.851 30.5936C31.0015 23.6822 38.6103 18.2287 47.1256 14.6285Z" fill="black"/>
</svg>

<svg xmlns="http://www.w3.org/2000/svg" width="155" height="151" fill="none" viewBox="0 0 155 151"><path fill="#000" d="M80.111 59.045a.67.67 0 0 0-.512-.251c-2.19.043-3.532 1.074-3.989 3.065a48 48 0 0 0-1.132 6.192 389 389 0 0 0-1.687 49.759c.08 2.365.372 5.099 1.931 7.453a4.8 4.8 0 0 0 1.788 1.393c.312.174.634.354.942.56a.624.624 0 0 0 .82-.112c.266-.308.547-.587.824-.857a4.5 4.5 0 0 0 1.382-1.898l.09-.328c.63-2.301 1.281-4.679 1.305-7.073.143-14.451.177-29.143.21-43.352l.023-9.2a8.6 8.6 0 0 0-.326-2.97 6 6 0 0 0-1.225-1.848 9 9 0 0 1-.444-.533m5.178-12.329c1.933-3.696 1.556-7.534-1.093-11.103-2.812-3.787-6.484-4.683-10.915-2.663a.63.63 0 0 0-.316.329q-.34.81-.686 1.6c-1.275 2.924-2.475 5.687-2.11 8.954.413 3.693 2.753 6.402 6.106 7.068a9 9 0 0 0 1.722.172 8.15 8.15 0 0 0 7.292-4.357m-7.493-6.04-.12 1.782c-.374-.326-.632-.596-.639-.75-.006-.188.29-.552.76-1.033"/><path fill="#000" d="M3.39 55.015c-6.803 26.789-.845 50.421 17.72 70.252.483.512.977 1.024 1.469 1.518 9.973 9.99 22.395 16.159 32.237 20.452 4.225 1.848 25.901 4.092 31.766 3.217 34.854-5.214 57.791-24.908 65.779-57.855a84.4 84.4 0 0 0 2.263-19.698c.038-15.624-6.529-33.788-20.071-47.392a272 272 0 0 1-4.127-3.51c-2.913-2.51-5.925-5.107-9.075-7.323C97.283-2.294 72.276-2.389 47.028 6.61 24.168 14.75 9.488 31.04 3.39 55.015M47.127 14.63c22.152-9.223 44.38-10.85 66.059 2.962 3.964 2.529 14.532 11.085 16.196 12.37l.107.08.088.098c8.458 8.985 18.143 25.414 17.929 42.302a86.4 86.4 0 0 1-2.905 21.384c-5.507 20.051-18.672 34.665-40.249 44.66-21.935 10.522-53.392-.115-61.761-5.65a97.9 97.9 0 0 1-23.93-23.303c-10.327-14.647-12.644-35.7-7.095-54.945A62.4 62.4 0 0 1 24.85 30.594a62.3 62.3 0 0 1 22.275-15.965"/></svg>
